X:1
T:Title
%%score { ( 1 3 ) | ( 2 4 ) }
L:1/8
M:6/8
K:Bb
V:1 treble nm="Grand Piano"
V:3 treble 
V:2 bass 
V:4 bass 
V:1
 z3 z2[Q:1/4=90] [DF] | .d3 z3 | .[Dd]2[K:bass] [F,D] [F,DF]2[K:treble] [B,F] | .f3 z3 | %4
[M:5/8] G z z z2 |[M:1/8] [A,EF] |[M:3/4] .d2 z2 z2 | .d2 z2 z2 | BA G F2 d | c2 A B3 | %10
 [Ge]3 [GB]2 [^Fc] | [Fd]6 | z2 z d z2 | d3 c3 | c4 z2 | [DGB]4- [DGB][DFB] | B4 z2 | d3 c2 F | %18
 z2[K:bass] z .[DF]3[K:treble] | DE [FB] [Ee]2 [Ge] | e[Fd] [Gc] B2 d | %21
[M:5/8] dFc [DB]2[Q:1/4=89][Q:1/4=87][Q:1/4=86][Q:1/4=84][Q:1/4=83][Q:1/4=82][Q:1/4=80][Q:1/4=79][Q:1/4=77][Q:1/4=76][Q:1/4=75][Q:1/4=73][Q:1/4=72][Q:1/4=70][Q:1/4=69] |] %22
V:2
 z3 z2 [B,,F,] | [B,,F,]2 [B,,F,] [B,,F,]2 [B,,F,] | z[K:treble] B[K:bass]B,, B,,2 D, | %3
 [C,A,]2 [B,,B,] A,,2 D, |[M:5/8] z AC, F,2 |[M:1/8] F, | %6
[M:3/4] [B,,B,]2 [B,,F,] [B,,F,]2 [B,,F,] | [B,,F,]2 [B,,F,] [B,,F,]2 [D,B,] | %8
 [E,G,E]2 [E,B,E] [F,B,D]2 [F,B,F] | [F,A,E]2 [F,CE] [B,D]3 | [E,B,]3 [E,B,]2 [E,B,] | [B,,B,]6 | %12
 [C,B,]4[K:treble] c[K:bass]C, | [F,B,F]3 [F,A,F]3 | [A,F]3 [D,A,]2 D, | G,4- G,G, | z2 z2 AC, | %17
 [F,B,F]3 [F,A,F]2 [F,A,E] | z[K:treble] B[K:bass] .B,,2 B,B,, | B,,C, [D,_A,] [E,G,]2 [E,B,] | %20
 .[E,B,]2 [E,E] [F,DF]2 [F,B,F] |[M:5/8] FD[F,A,E] [B,,B,]2 |] %22
V:3
 x6 | D-[DB]D [DF]2 [DF] | x2[K:bass] x3[K:treble] x | F-[Fe][Fd] [CFc]2 [A,F] | %4
[M:5/8] [B,D]2 [B,=EG] [A,F]2 |[M:1/8] x |[M:3/4] D-[DB] D [DF]2 [DF] | D-[DB] D [DF]2 F | x6 | %9
 x6 | x6 | x6 | [=Ed]3 E2 [CEB] | x6 | z2 E, [^Fd]2 [DFA] | x6 | [C=E]4- [CE][CEB] | x6 | %18
 .[Dd]2[K:bass] [F,D]F, z[K:treble] [B,DB] | [B,B]2 z2 z2 | G2 z2 z2 |[M:5/8] x5 |] %22
V:4
 x6 | x6 | .[B,,F,]3[K:treble][K:bass] z3 | x6 |[M:5/8] B,,2 z z2 |[M:1/8] x |[M:3/4] x6 | x6 | %8
 x6 | x6 | x6 | x6 | z2 z .[C,G,]3[K:treble][K:bass] | x6 | F,2 z2 z2 | x6 | C,6 | x6 | %18
 [B,,B,]2[K:treble][K:bass] z .B,,3 | x6 | x6 |[M:5/8] F,2 z z2 |] %22

